usr/share/icons/biglinux-icons-material/symbolic/apps/session-properties-symbolic.svg

<svg width="16" height="16" version="1.1" xmlns="http://www.w3.org/2000/svg">
 <g color="#000000" fill="#363636" font-family="sans-serif" font-weight="400">
  <path d="m3.994 10c-1.258-0.015-2.179 0.03-2.931-0.385a1.88 1.88 0 0 1-0.838-0.998c-0.165-0.437-0.225-0.96-0.225-1.617v-3c0-0.658 0.06-1.179 0.225-1.617a1.88 1.88 0 0 1 0.838-0.998c0.752-0.416 1.673-0.37 2.931-0.385h4.012c1.258 0.015 2.179-0.03 2.932 0.385 0.376 0.207 0.673 0.56 0.838 0.998 0.164 0.438 0.224 0.96 0.224 1.617v3c0 0.658-0.06 1.179-0.225 1.617a1.88 1.88 0 0 1-0.837 0.998c-0.753 0.416-1.674 0.37-2.932 0.385h-4.008zm6e-3 -1h4c1.259-0.015 2.087-0.06 2.453-0.262 0.184-0.1 0.29-0.212 0.387-0.472s0.16-0.674 0.16-1.266v-3c0-0.592-0.063-1.006-0.16-1.266-0.098-0.26-0.201-0.371-0.385-0.472-0.365-0.202-1.195-0.247-2.455-0.262h-4c-1.259 0.015-2.09 0.06-2.455 0.262-0.184 0.1-0.287 0.212-0.385 0.472s-0.16 0.674-0.16 1.266v3c0 0.592 0.062 1.006 0.16 1.266s0.201 0.371 0.385 0.472c0.365 0.202 1.195 0.247 2.455 0.262z" overflow="visible" solid-color="#000000" style="font-feature-settings:normal;font-variant-alternates:normal;font-variant-caps:normal;font-variant-ligatures:normal;font-variant-numeric:normal;font-variant-position:normal;isolation:auto;mix-blend-mode:normal;shape-padding:0;text-decoration-color:#000000;text-decoration-line:none;text-decoration-style:solid;text-indent:0;text-orientation:mixed;text-transform:none;white-space:normal"/>
  <path d="m13 5v1h1v4e-3c0.113 6e-3 0.312 4e-3 0.398 0.014 0.306 0.035 0.408 0.093 0.444 0.129 0.036 0.035 0.093 0.133 0.125 0.435s0.033 0.766 0.033 1.395v3.011c0 0.595-0.063 1.009-0.16 1.27-0.098 0.26-0.203 0.373-0.387 0.475-0.366 0.202-1.194 0.248-2.453 0.263h-5c-0.958 0-1.497-0.142-1.723-0.293-0.225-0.15-0.277-0.292-0.277-0.71v-0.993h-1v1c2e-3 0.583 0.2 1.19 0.723 1.54 0.524 0.35 1.235 0.46 2.277 0.46h5.006c1.258-0.015 2.179 0.03 2.932-0.387 0.376-0.208 0.673-0.561 0.838-1.002 0.164-0.44 0.224-0.962 0.224-1.623v-3.011c0-0.627 3e-3 -1.101-0.04-1.5-0.042-0.4-0.137-0.767-0.411-1.041-0.274-0.275-0.638-0.37-1.037-0.416-0.136-0.016-0.355-0.013-0.512-0.02z" opacity=".5" overflow="visible" solid-color="#000000" style="font-feature-settings:normal;font-variant-alternates:normal;font-variant-caps:normal;font-variant-ligatures:normal;font-variant-numeric:normal;font-variant-position:normal;isolation:auto;mix-blend-mode:normal;shape-padding:0;text-decoration-color:#000000;text-decoration-line:none;text-decoration-style:solid;text-indent:0;text-orientation:mixed;text-transform:none;white-space:normal"/>
 </g>
</svg>

<svg xmlns="http://www.w3.org/2000/svg" width="16" height="16"><g fill="#dedede" color="#000" font-family="sans-serif" font-weight="400"><path d="M3.994 10c-1.258-.015-2.179.03-2.931-.385a1.88 1.88 0 0 1-.838-.998C.06 8.18 0 7.657 0 7V4c0-.658.06-1.179.225-1.617a1.88 1.88 0 0 1 .838-.998C1.815.969 2.736 1.015 3.994 1h4.012c1.258.015 2.179-.03 2.932.385.376.207.673.56.838.998.164.438.224.96.224 1.617v3c0 .658-.06 1.179-.225 1.617a1.88 1.88 0 0 1-.837.998c-.753.416-1.674.37-2.932.385H3.998zM4 9h4c1.259-.015 2.087-.06 2.453-.262.184-.1.29-.212.387-.472S11 7.592 11 7V4c0-.592-.063-1.006-.16-1.266-.098-.26-.201-.371-.385-.472C10.09 2.06 9.26 2.015 8 2H4c-1.259.015-2.09.06-2.455.262-.184.1-.287.212-.385.472S1 3.408 1 4v3c0 .592.062 1.006.16 1.266s.201.371.385.472C1.91 8.94 2.74 8.985 4 9z" overflow="visible" style="font-feature-settings:normal;font-variant-alternates:normal;font-variant-caps:normal;font-variant-ligatures:normal;font-variant-numeric:normal;font-variant-position:normal;isolation:auto;mix-blend-mode:normal;shape-padding:0;text-decoration-color:#000;text-decoration-line:none;text-decoration-style:solid;text-indent:0;text-orientation:mixed;text-transform:none;white-space:normal"/><path d="M13 5v1h1v.004c.113.006.312.004.398.014.306.035.408.093.444.129.036.035.093.133.125.435S15 7.348 15 7.977v3.011c0 .595-.063 1.009-.16 1.27-.098.26-.203.373-.387.475-.366.202-1.194.248-2.453.263H7c-.958 0-1.497-.142-1.723-.293-.225-.15-.277-.292-.277-.71V11H4v1c.002.583.2 1.19.723 1.54.524.35 1.235.46 2.277.46h5.006c1.258-.015 2.179.03 2.932-.387.376-.208.673-.561.838-1.002.164-.44.224-.962.224-1.623V7.977c0-.627.003-1.101-.04-1.5-.042-.4-.137-.767-.411-1.041-.274-.275-.638-.37-1.037-.416-.136-.016-.355-.013-.512-.02z" opacity=".5" overflow="visible" style="font-feature-settings:normal;font-variant-alternates:normal;font-variant-caps:normal;font-variant-ligatures:normal;font-variant-numeric:normal;font-variant-position:normal;isolation:auto;mix-blend-mode:normal;shape-padding:0;text-decoration-color:#000;text-decoration-line:none;text-decoration-style:solid;text-indent:0;text-orientation:mixed;text-transform:none;white-space:normal"/></g></svg>
